!!!!SEGMENT: pl-cz--ii-15--006_szlagorski-walenty--walc-4.krn
!!!cenid: 18xx:1156
!!!COM: Szlagórski, Walenty
!!!COM-rismID: pe30111815
!!!CDT: 1801-1863/07/16
!!!CNT: Polish
!!!OTL: Walc 4
!!!PDT:
!!!AGN: Secular; Waltz
!!!SMS-siglum: PL-CZ
!!!SMS-shelfmark: II-15
!!!SMS-shelfwork: 006 W
!!!SMS-variant:
!!!SMS-altvar:
!!!NIFC-rismSourceID: 300001527
!!!NIFC-islandoraID: pl-cz:32533
!!!URL-pdf-islandora: https://repozytorium.nifc.pl/islandora/object/pl-cz%3A32533/datastream/PDF/view
!!!URL-scan:
!!!ONB-nifc: UWAGA: części: 1. Mazur (Morawski), 2. Mazur (Szlagórski), 3. Walc 1, 4. Walc 2, 5. Walc 3, 6. Walc 4, 7. Walc 5, 8. Mazur (Studziński), 9. Kotylion (Szlagórski), 10. Gallop (Szlagórski), 11. Mazur (Smacierzyński). UWAGA: dalsza część partii Basso z tyłu okładki
!!!AIN: 2 clars 1 cor 2 empty 1 flt 2 violn
!!!key:
**kern	**dynam	**kern	**kern	**dynam	**kern	**kern	**kern	**dynam	**kern	**dynam	**kern
*part8	*part8	*part7	*part6	*part6	*part5	*part4	*part3	*part3	*part2	*part2	*part1
*staff8	*	*staff7	*staff6	*	*staff5	*staff4	*staff3	*	*staff2	*	*staff1
*group3	*	*group3	*group3	*	*group2	*group2	*group1	*	*group1	*	*group1
*>[A,A,B,B]	*>[A,A,B,B]	*>[A,A,B,B]	*>[A,A,B,B]	*>[A,A,B,B]	*>[A,A,B,B]	*>[A,A,B,B]	*>[A,A,B,B]>[A,A,B,B]	*>[A,A,B,B]	*>[A,A,B,B]	*>[A,A,B,B]	*>[A,A,B,B]
*>A	*>A	*>A	*>A	*>A	*>A	*>A	*>A	*>A	*>A	*>A	*>A
*Iempty	*	*Ivioln	*Ivioln	*	*Iempty	*Icor	*Iclars	*	*Iclars	*	*Iflt
*I"Baſso	*	*I"Violino 2do	*I"Violino 1mo	*	*I"Clarino in G.	*I"Corno 1mo in D.	*I"Clarinetto 2do in C	*	*I"Clarinetto 1mo in C.	*	*I"Flauto Primo
*I'b	*	*I'vl 2	*I'vl 1	*	*I'clno in G	*I'cor 1 in D	*I'cl 2 in C	*	*I'cl 1 in C	*	*I'fl 1
*clefF4	*	*clefG2	*clefG2	*	*clefG2	*clefG2	*clefG2	*	*clefG2	*	*clefG2
*	*	*	*	*	*ITrd-1c-2	*ITrd-1c-2	*	*	*	*	*
*k[f#c#]	*	*k[f#c#]	*k[f#c#]	*	*k[f#c#]	*k[f#c#]	*k[f#c#]	*	*k[f#c#]	*	*k[f#c#]
*D:	*	*D:	*D:	*	*	*	*D:	*	*D:	*	*D:
*M3/4	*	*M3/4	*M3/4	*	*M3/4	*M3/4	*M3/4	*	*M3/4	*	*M3/4
=1	=1	=1	=1	=1	=1	=1	=1	=1	=1	=1	=1
!	!LO:DY:rj	!	!	!LO:DY:rj	!	!	!	!LO:DY:rj	!	!LO:DY:rj	!
4D'\	ff	4f# 4A/	4dd\	ff	4d/	4ff#\	4f#'/	f	4dd'\	ff	4ddd\
4E'\	.	4g 4A/	4cc#X\	.	4r	4r	4g'/	.	4cc#X'\	.	4ccc#\
4F#'\	.	4a 4d/	4dd\	.	4a/	4dd\	4a'/	.	4dd'\	.	4ddd\
=2	=2	=2	=2	=2	=2	=2	=2	=2	=2	=2	=2
4G\	.	4d 4G/	4b\	.	4r	4r	4g'/	.	4b\	.	4bb\
*2\right	*	*	*2\right	*	*2\right	*2\right	*	*	*2\right	*	*2\right
2G^<\	.	2e 2B/	2ee\	.	2ee\	2ee\	2b'/	.	2ee\	.	2eee\
=3	=3	=3	=3	=3	=3	=3	=3	=3	=3	=3	=3
4A\	.	4r	8dd\L	.	4r	4r	4r	.	4r	.	(8ddd\L
.	.	.	8cc#\J	.	.	.	.	.	.	.	8ccc#\)
4r	.	4a 4g/	8b\L	.	4a/	4ee\	4g/	.	4cc#\	.	8bb'\
.	.	.	8a\	.	.	.	.	.	.	.	8aa'\
4r	.	4a 4g/	8b\	.	4a/	4ee\	4g/	.	4cc#\	.	(8bb\
.	.	.	8cc#\J	.	.	.	.	.	.	.	8ccc#\J)
!	!	!	!	!	!	!LO:LB:g=original	!	!	!	!	!
=4	=4	=4	=4	=4	=4	=4	=4	=4	=4	=4	=4
4D\	.	4r	8dd\L	.	4r	4r	4r	.	4r	.	8ddd\L
.	.	.	8ee\	.	.	.	.	.	.	.	8eee\
4r	.	4a 4f#/	8ff#\	.	4d/	4dd\	4f#/	.	4dd\	.	8fff#\
.	.	.	8gg\J	.	.	.	.	.	.	.	8ggg\J
4r	.	4b 4f#/	4aa\	.	4d/	4dd\	4f#/	.	4dd\	.	4aaa\
=5	=5	=5	=5	=5	=5	=5	=5	=5	=5	=5	=5
4D'\	.	4f# 4A/	4dd\	.	4d/	4ff#\	4f#'/	.	4dd'\	.	4ddd\
4E'\	.	4g 4A/	4cc#\	.	4r	4r	4g'/	.	4cc#'\	.	4ccc#\
4F#'\	.	4a 4d/	4dd\	.	4a/	4dd\	4a'/	.	4dd'\	.	4ddd\
!	!	!	!	!	!	!	!	!	!	!	!LO:LB:g=original
=6	=6	=6	=6	=6	=6	=6	=6	=6	=6	=6	=6
4G\	.	4d 4G/	4b\	.	4r	4r	4g/	.	4b\	.	4bb\
2G^<\	.	2e 2B/	2ee\	.	2ee\	2ee\	2b/	.	2ee\	.	2eee\
!LO:LB:g=original	!	!	!LO:LB:g=original	!	!	!	!	!	!	!	!
=7	=7	=7	=7	=7	=7	=7	=7	=7	=7	=7	=7
4A\	.	4r	8dd\L	.	4r	4r	4r	.	4r	.	(8ddd\L
.	.	.	8cc#\J	.	.	.	.	.	.	.	8ccc#\)
!LO:TX:t=P:problem=fragment nieczytelny	!	!	!	!	!	!	!	!	!	!	!
4ryy	.	4a 4g/	8b\L	.	4A/	4ee\	4g/	.	4cc#\	.	8bb'\
.	.	.	8a\	.	.	.	.	.	.	.	8aa'\
4r	.	4a 4g/	8b\	.	8a/L	4ee\	4g/	.	4cc#\	.	(8bb\
.	.	.	8cc#\J	.	8a/J	.	.	.	.	.	8ccc#\J)
!	!	!LO:LB:g=original	!	!	!	!	!	!	!	!	!
=8	=8	=8	=8	=8	=8	=8	=8	=8	=8	=8	=8
2D\	.	2a 2f#/	2dd\	.	2d/	2dd\	2f#/	.	2dd\	.	2ddd\
!	!	!	!LO:TX:t=P:problem=brak pauzy 4r	!	!	!	!	!	!	!	!
4r	.	4r	4ryy	.	4r	4r	4r	.	4r	.	4r
!	!	!	!	!	!	!	!LO:LB:g=original	!	!LO:LB:g=original	!	!
=9:|!|:	=9:|!|:	=9:|!|:	=9:|!|:	=9:|!|:	=9:|!|:	=9:|!|:	=9:|!|:	=9:|!|:	=9:|!|:	=9:|!|:	=9:|!|:
*>B	*>B	*>B	*>B	*>B	*>B	*>B	*>B	*>B	*>B	*>B	*>B
!	!	!	!	!	!	!	!	!LO:DY:rj	!	!LO:DY:rj	!
4AA/	.	4a 4g/	8aa\L	.	4A/	4ee\	4cc#'\	ff	4aa\	ff	4aa\
.	.	.	8aa\	.	.	.	.	<	.	<	.
4r	.	4r	8gg#X\	.	4r	4r	4dd|\	.	4gg#X\	.	4bb\
.	.	.	8gg#\	.	.	.	.	.	.	.	.
4AA/	.	4a 4g/	8ggn\	.	4a/	4ee\	4ee|\	[	4ggn\	[	4ccc#\
.	.	.	8gg\J	.	.	.	.	.	.	.	.
!	!	!	!	!	!LO:LB:g=original	!	!	!	!	!	!
=10	=10	=10	=10	=10	=10	=10	=10	=10	=10	=10	=10
4D\	.	4a 4f#/	8ff#\L	.	4dd\	4ff#\	4dd'\	.	4ff#\	.	4ddd\
.	.	.	8ff#\	.	.	.	.	.	.	.	.
!	!	!	!	!	!	!	!LO:TX:t=P:problem=diminuendolike accent	!	!LO:TX:t=P:problem=diminuendolike accent	!	!
4AA/	.	4a 4g/	8cc#\	.	4a/	4ee\	4g'>^</	.	4cc#^<\	.	4eee\
.	.	.	8cc#\	.	.	.	.	.	.	.	.
4D\	.	4a 4f#/	8dd\	.	4f#/	4dd\	4f#|>/	.	4dd\	.	4fff#\
.	.	.	8dd\J	.	.	.	.	.	.	.	.
=11	=11	=11	=11	=11	=11	=11	=11	=11	=11	=11	=11
!	!	!	!	!	!LO:TX:a:t=2	!LO:TX:a:t=2	!	!	!	!	!
4BB/	.	4b 4a/	8bb\L	.	1.r	1.r	4dd#X'\	<	4bb\	<	4bb\
.	.	.	8bb\	.	.	.	.	.	.	.	.
4r	.	4r	8aa#X\	.	.	.	4ee|\	.	4aa#X\	.	4ccc#X\
.	.	.	8aa#\	.	.	.	.	.	.	.	.
4BB/	.	4b 4a/	8aan\	.	.	.	4ff#|\	[	4aan\	[	4ddd#X\
.	.	.	8aa\J	.	.	.	.	.	.	.	.
=12	=12	=12	=12	=12	=12	=12	=12	=12	=12	=12	=12
4E\	.	4b 4g/	8ggn\L	.	.	.	4ee'\	.	4ggn\	.	4eee\
.	.	.	8gg\	.	.	.	.	.	.	.	.
!	!	!	!	!	!	!	!LO:TX:t=P:problem=diminuendolike accent	!	!	!	!
4BB/	.	4b 4a/	8dd#X\	.	.	.	4a'>^/	.	4dd#X\	.	4fff#\
.	.	.	8dd#\	.	.	.	.	.	.	.	.
4E\	.	4b 4g/	8ee\	.	.	.	4g|>/	.	4ee\	.	4ggg\
.	.	.	8ee\J	.	.	.	.	.	.	.	.
!	!	!	!LO:LB:g=original	!	!	!	!	!	!	!	!LO:LB:g=original
=13	=13	=13	=13	=13	=13	=13	=13	=13	=13	=13	=13
4AA/	.	4r	4aa\	.	4r	4r	4r	.	4r	.	4aa\
4r	.	4a 4g/	8gg#X\L	.	8a/L	4ee\	4g/	.	4cc#\	.	8gg#X\L
.	.	.	8aa\	.	8a/J	.	.	.	.	.	8aa\
4r	.	4a 4g/	8bb\	.	4a/	4ee\	4g/	.	4cc#\	.	8bb\
.	.	.	8aa\J	.	.	.	.	.	.	.	8aa\J
=14	=14	=14	=14	=14	=14	=14	=14	=14	=14	=14	=14
4D\	.	4r	(8aa\L	.	4r	4r	4r	.	4r	.	(8aa\L
.	.	.	8fff#\J)	.	.	.	.	.	.	.	8fff#\J)
4r	.	4a 4f#/	2ddd\	.	8dd\L	4ff#\	4f#/	.	4dd\	.	2ddd\
.	.	.	.	.	8dd\J	.	.	.	.	.	.
4r	.	4a 4f#/	.	.	4dd\	4ff#\	4f#/	.	4dd\	.	.
!LO:LB:g=original	!	!	!	!	!	!	!	!	!	!	!
=15	=15	=15	=15	=15	=15	=15	=15	=15	=15	=15	=15
4AA/	.	4r	4aa\	.	4r	4r	4r	.	4r	.	4aa\
4A\	.	4a 4g/	8gg#X\L	.	8a/L	4ee\	4g/	.	4cc#\	.	(8gg#X\L
.	.	.	8aa\	.	8a/J	.	.	.	.	.	8aa\)
4A\	.	4a 4g/	8bb\	.	4a/	4ee\	4g/	.	4cc#\	.	8bb'\
.	.	.	8aa\J	.	.	.	.	.	.	.	8aa'\J
=16	=16	=16	=16	=16	=16	=16	=16	=16	=16	=16	=16
4d\	.	2a 2e/	2dd\	.	2d/	2dd\	2f#/	.	2dd\	.	2ddd\
4D/	.	.	.	.	.	.	.	.	.	.	.
4r	.	4r	4r	.	4r	4r	4r	.	4r	.	4r
=:|!	=:|!	=:|!	=:|!	=:|!	=:|!	=:|!	=:|!	=:|!	=:|!	=:|!	=:|!
*-	*-	*-	*-	*-	*-	*-	*-	*-	*-	*-	*-
!!!system-decoration: [(g1)][(g2)][(g3)]
!!!RDF**kern: > = above
!!!RDF**kern: < = below
!!!RDF**kern: | = vertical stroke
!!!ENC: Solarz Mateusz
!!!END: 2020-11-06
!!!ENC: Andrzej Kubiczek
!!!END: 2021-10-30
